resources/svg/snes.svg

<svg width="15" height="15" viewBox="0 0 15 15" fill="none" xmlns="http://www.w3.org/2000/svg">
<path fill-rule="evenodd" clip-rule="evenodd" d="M0 4.5C0 3.67157 0.671573 3 1.5 3H13.5C14.3284 3 15 3.67157 15 4.5V10.5C15 11.3284 14.3284 12 13.5 12H1.5C0.671573 12 0 11.3284 0 10.5V4.5ZM12 7H11V6H12V7ZM3 10V9H2V8H3V7H4V8H5V9H4V10H3ZM11 9H12V8H11V9ZM9 9H10V8H9V9ZM10 7H9V6H10V7Z" fill="black"/>
</svg>

<svg viewBox="0 0 15 15" fill="none" xmlns="http://www.w3.org/2000/svg" fill="currentColor"><path fill-rule="evenodd" clip-rule="evenodd" d="M0 4.5A1.5 1.5 0 011.5 3h12A1.5 1.5 0 0115 4.5v6a1.5 1.5 0 01-1.5 1.5h-12A1.5 1.5 0 010 10.5v-6zM12 7h-1V6h1v1zm-9 3V9H2V8h1V7h1v1h1v1H4v1H3zm8-1h1V8h-1v1zM9 9h1V8H9v1zm1-2H9V6h1v1z" fill="currentColor"/></svg>
